X: 3203
T: the Spell.   a Reel.
%R: reel
B: Niel Gow & Sons "Complete Repository" v.3 p.20 #3
Z: 2021 John Chambers <jc:trillian.mit.edu>
M: C|
L: 1/8
K: C
% - - - - - - - - - -
V: 1 staves=2
|:\
~C2EG cGEC | ~C2EG FDB,G, | ~C2EG cGEC | ec GF E2C2 :| g>age f>gfd | efec (B/c/d)G2 |
G2GA Bcde | (f/g/a) gf e2ce || g>age f>gfd | efec (B/c/d)G2 | G2GA Bcde | (f/g/a) gf {f}e2dc |]
% - - - - - - - - - -
V: 2 clef=bass middle=d
|:\
c2c2 c2c2 | e2c2 g2G2 | c2c2 c2c2 | c2G2 C2C2 :| e'2e'2 d'2d'2 | c'2c'2 g2g2 |
g2^f2 =f2e2 | f2g2 c2c2 || e'2^c'2 d'2b2 | c'2a2 g2g2 | g2^f2 =f2e2 | f2g2 c2c2 |]
